icons/circle/48/anoise.svg

<svg xmlns="http://www.w3.org/2000/svg" viewBox="0 0 48 48">
 <g>
  <path d="m 36.31 5 c 5.859 4.062 9.688 10.831 9.688 18.5 c 0 12.426 -10.07 22.5 -22.5 22.5 c -7.669 0 -14.438 -3.828 -18.5 -9.688 c 1.037 1.822 2.306 3.499 3.781 4.969 c 4.085 3.712 9.514 5.969 15.469 5.969 c 12.703 0 23 -10.298 23 -23 c 0 -5.954 -2.256 -11.384 -5.969 -15.469 c -1.469 -1.475 -3.147 -2.744 -4.969 -3.781 z m 4.969 3.781 c 3.854 4.113 6.219 9.637 6.219 15.719 c 0 12.703 -10.297 23 -23 23 c -6.081 0 -11.606 -2.364 -15.719 -6.219 c 4.16 4.144 9.883 6.719 16.219 6.719 c 12.703 0 23 -10.298 23 -23 c 0 -6.335 -2.575 -12.06 -6.719 -16.219 z" style="opacity:0.05"/>
  <path d="m 41.28 8.781 c 3.712 4.085 5.969 9.514 5.969 15.469 c 0 12.703 -10.297 23 -23 23 c -5.954 0 -11.384 -2.256 -15.469 -5.969 c 4.113 3.854 9.637 6.219 15.719 6.219 c 12.703 0 23 -10.298 23 -23 c 0 -6.081 -2.364 -11.606 -6.219 -15.719 z" style="opacity:0.1"/>
  <path d="m 31.25 2.375 c 8.615 3.154 14.75 11.417 14.75 21.13 c 0 12.426 -10.07 22.5 -22.5 22.5 c -9.708 0 -17.971 -6.135 -21.12 -14.75 a 23 23 0 0 0 44.875 -7 a 23 23 0 0 0 -16 -21.875 z" style="opacity:0.2"/>
 </g>
 <g style="fill:#ee992e;fill-opacity:1">
  <path d="M 24,1 C 36.703,1 47,11.297 47,24 47,36.703 36.703,47 24,47 11.297,47 1,36.703 1,24 1,11.297 11.297,1 24,1 Z"/>
 </g>
 <path d="M 41 25 A 16 16 0 0 1 25 41 16 16 0 0 1 9 25 16 16 0 0 1 25 9 16 16 0 0 1 41 25" style="fill:#000;opacity:0.1;fill-opacity:1;stroke:none"/>
 <g>
  <path d="m 40.03 7.531 c 3.712 4.084 5.969 9.514 5.969 15.469 0 12.703 -10.297 23 -23 23 c -5.954 0 -11.384 -2.256 -15.469 -5.969 4.178 4.291 10.01 6.969 16.469 6.969 c 12.703 0 23 -10.298 23 -23 0 -6.462 -2.677 -12.291 -6.969 -16.469 z" style="opacity:0.1"/>
 </g>
 <g>
  <path d="M 40 24 A 16 16 0 0 1 24 40 16 16 0 0 1 8 24 16 16 0 0 1 24 8 16 16 0 0 1 40 24" style="fill:#fff;opacity:1;fill-opacity:1;stroke:none"/>
  <path d="m 20.721 14.25 a 1.25 1.25 0 0 0 -0.822 2.166 L 28.881 25 19.898 33.584 a 1.25 1.25 0 1 0 1.729 1.807 L 32.5 25 21.627 14.607 A 1.25 1.25 0 0 0 20.721 14.25" mix-blend-mode="normal" isolation="auto" white-space="normal" solid-opacity="1" solid-color="#000000" style="visibility:visible;shape-rendering:auto;color-interpolation-filters:linearRGB;fill:#000;opacity:0.1;image-rendering:auto;fill-opacity:1;stroke:none;display:inline;color:#000;fill-rule:evenodd;color-rendering:auto;color-interpolation:sRGB"/>
  <path d="m 19.721 13.25 a 1.25 1.25 0 0 0 -0.822 2.166 L 27.881 24 18.898 32.584 a 1.25 1.25 0 1 0 1.729 1.807 L 31.5 24 20.627 13.609 A 1.25 1.25 0 0 0 19.721 13.25" mix-blend-mode="normal" isolation="auto" white-space="normal" solid-opacity="1" solid-color="#000000" style="visibility:visible;shape-rendering:auto;color-interpolation-filters:linearRGB;fill:#353535;opacity:1;image-rendering:auto;fill-opacity:1;stroke:none;display:inline;color:#000;fill-rule:evenodd;color-rendering:auto;color-interpolation:sRGB"/>
 </g>
</svg>

<svg xmlns="http://www.w3.org/2000/svg" viewBox="0 0 48 48">
  <path d="M36.31 5c5.859 4.062 9.688 10.831 9.688 18.5 0 12.426-10.07 22.5-22.5 22.5-7.669 0-14.438-3.828-18.5-9.688a23.24 23.24 0 0 0 3.781 4.969 22.923 22.923 0 0 0 15.469 5.969c12.703 0 23-10.298 23-23a22.92 22.92 0 0 0-5.969-15.469A23.216 23.216 0 0 0 36.31 5zm4.969 3.781A22.911 22.911 0 0 1 47.498 24.5c0 12.703-10.297 23-23 23a22.909 22.909 0 0 1-15.719-6.219C12.939 45.425 18.662 48 24.998 48c12.703 0 23-10.298 23-23 0-6.335-2.575-12.06-6.719-16.219z" opacity=".05"/>
  <path d="M41.28 8.781a22.923 22.923 0 0 1 5.969 15.469c0 12.703-10.297 23-23 23A22.92 22.92 0 0 1 8.78 41.281 22.911 22.911 0 0 0 24.499 47.5c12.703 0 23-10.298 23-23A22.909 22.909 0 0 0 41.28 8.781z" opacity=".1"/>
  <path d="M31.25 2.375C39.865 5.529 46 13.792 46 23.505c0 12.426-10.07 22.5-22.5 22.5-9.708 0-17.971-6.135-21.12-14.75a23 23 0 0 0 44.875-7 23 23 0 0 0-16-21.875z" opacity=".2"/>
  <path d="M24 1c12.703 0 23 10.297 23 23S36.703 47 24 47 1 36.703 1 24 11.297 1 24 1z" fill="#ee992e"/>
  <path d="M41 25a16 16 0 0 1-16 16A16 16 0 0 1 9 25 16 16 0 0 1 25 9a16 16 0 0 1 16 16" opacity=".1"/>
  <g>
    <path d="M40.03 7.531A22.922 22.922 0 0 1 45.999 23c0 12.703-10.297 23-23 23A22.92 22.92 0 0 1 7.53 40.031C11.708 44.322 17.54 47 23.999 47c12.703 0 23-10.298 23-23 0-6.462-2.677-12.291-6.969-16.469z" opacity=".1"/>
  </g>
  <g>
    <path d="M40 24a16 16 0 0 1-16 16A16 16 0 0 1 8 24 16 16 0 0 1 24 8a16 16 0 0 1 16 16" fill="#fff"/>
    <path d="M20.721 14.25a1.25 1.25 0 0 0-.822 2.166L28.881 25l-8.983 8.584a1.25 1.25 0 1 0 1.729 1.807L32.5 25 21.627 14.607a1.25 1.25 0 0 0-.906-.357" white-space="normal" solid-color="#000000" opacity=".1" color="#000" fill-rule="evenodd"/>
    <path d="M19.721 13.25a1.25 1.25 0 0 0-.822 2.166L27.881 24l-8.983 8.584a1.25 1.25 0 1 0 1.729 1.807L31.5 24 20.627 13.609a1.25 1.25 0 0 0-.906-.359" white-space="normal" solid-color="#000000" fill="#353535" color="#000" fill-rule="evenodd"/>
  </g>
</svg>
